Origami/16x16/apps/soulseek.svg

<svg width="16" height="16" version="1" xmlns="http://www.w3.org/2000/svg">
 <path d="m8 0c-4.432 0-8 3.568-8 8s3.568 8 8 8 8-3.568 8-8-3.568-8-8-8z" style="fill:#4f4f4f"/>
 <path d="m7.255038 13c-0.2236446-0.059729-0.8042227-0.167641-0.9977383-0.562808-0.2656921-0.542553-0.2652619-0.531165-0.0325993-0.862455 0.3226658-0.459475 1.13-1.276732 1.13-1.49976 0-0.1405911-0.1448099-0.2514115-0.5035365-0.3853476-0.772899-0.2885744-1.7654838-0.7764384-2.3055069-1.1599854-0.6614222-0.4697684-1.2791674-1.4830667-1.471594-2.0966229-0.1352827-0.4313512-0.0902868-0.5245202 0.1767822-0.3660422 1.4013335 0.774331 1.839253 0.8868793 3.2280099 1.0081003 0.8628366-0.03615 1.5549279-0.6858584 1.5211449-1.2704162-0.0276257-0.4409481-0.423804-0.516176-0.6075083-1.0806203-0.1035996-0.3183116-0.0459859-0.4298414-0.0270836-0.5520794 0.013023-0.084251 0.046401-0.1616344 0.074158-0.1719633 0.5618874 0.3418526 1.2040048 0.4553943 1.8109389 0.6356179 0.317089 0.083453 0.4654514 0.1431426 0.5427512 0.4493029 0.060346 0.2390126 0.3903698 0.4004182 0.5608698 0.560416 0.0808 0.075825 0.146917 0.1576695 0.146917 0.1818743 0 0.1230727-0.5822246 0.1530168-0.9253025 0.059671-0.301642-0.08207-0.3332387 0.1268253-0.3022419 0.3924929 0.04639 0.7063409 0.7821924 0.6341027 1.6004084 0.6955397 0.68237 0.051236 1.846177-0.4466787 2.730458-0.8122571 0.185196-0.0765628 0.363229-0.1338551 0.395635-0.1273152-0.301616 1.2437451-1.598831 2.9555181-2.719889 3.4091938-0.552989 0.2151337-1.3513748 0.4605502-1.5911807 0.4891121-0.5962159 0.0710137-0.8006085 0.1461317-0.8969897 0.3296617-0.1098664 0.209199-0.2713508 1.172283-0.3312254 1.90469-0.1432133 0.612864-0.7934611 0.827421-1.2056772 0.832z" style="fill:#4895fb"/>
</svg>

<svg xmlns="http://www.w3.org/2000/svg" width="16" height="16" version="1">
 <path style="fill:#4f4f4f" d="M 8,0 C 3.568,0 0,3.568 0,8 c 0,4.432 3.568,8 8,8 4.432,0 8,-3.568 8,-8 C 16,3.568 12.432,0 8,0 Z"/>
 <path style="fill:#4895fb" d="M 7.255038,13 C 7.0313934,12.940271 6.4508153,12.832359 6.2572997,12.437192 5.9916076,11.894639 5.9920378,11.906027 6.2247004,11.574737 c 0.3226658,-0.459475 1.13,-1.276732 1.13,-1.49976 0,-0.1405911 -0.1448099,-0.2514115 -0.5035365,-0.3853476 C 6.0782649,9.401055 5.0856801,8.913191 4.545657,8.529644 3.8842348,8.0598756 3.2664896,7.0465773 3.074063,6.4330211 2.9387803,6.0016699 2.9837762,5.9085009 3.2508452,6.0669789 4.6521787,6.8413099 5.0900982,6.9538582 6.4788551,7.0750792 7.3416917,7.0389292 8.033783,6.3892208 8,5.804663 7.9723743,5.3637149 7.576196,5.288487 7.3924917,4.7240427 7.2888921,4.4057311 7.3465058,4.2942013 7.3654081,4.1719633 7.3784311,4.0877123 7.4118091,4.0103289 7.4395661,4 8.0014535,4.3418526 8.6435709,4.4553943 9.250505,4.6356179 c 0.317089,0.083453 0.4654514,0.1431426 0.5427512,0.4493029 0.060346,0.2390126 0.3903698,0.4004182 0.5608698,0.560416 0.0808,0.075825 0.146917,0.1576695 0.146917,0.1818743 0,0.1230727 -0.5822246,0.1530168 -0.9253025,0.059671 -0.301642,-0.08207 -0.3332387,0.1268253 -0.3022419,0.3924929 0.04639,0.7063409 0.7821924,0.6341027 1.6004084,0.6955397 0.68237,0.051236 1.846177,-0.4466787 2.730458,-0.8122571 C 13.789561,6.0860948 13.967594,6.0288025 14,6.0353424 13.698384,7.2790875 12.401169,8.9908605 11.280111,9.4445362 10.727122,9.6596699 9.9287362,9.9050864 9.6889303,9.9336483 9.0927144,10.004662 8.8883218,10.07978 8.7919406,10.26331 8.6820742,10.472509 8.5205898,11.435593 8.4607152,12.168 8.3175019,12.780864 7.6672541,12.995421 7.255038,13 Z"/>
</svg>
